icons/file_type_binary.svg

<svg xmlns="http://www.w3.org/2000/svg" viewBox="0 0 32 32"><path d="M20.929 2h-16.4v28h23.3V9Zm5.114 26.35H6.409V3.65h13.406l6.333 6.333V28.35ZM11.477 15.393c1.584 0 2.563-1.463 2.563-3.663 0-2.145-.8-3.443-2.4-3.443S9.068 9.75 9.068 11.95c0 2.15.803 3.443 2.409 3.443Zm-1.243-3.663c0-1.562.429-2.453 1.32-2.453.649 0 1.045.55 1.221 1.474l-2.53 1.309a3.2 3.2 0 0 1-.011-.33Zm1.331 2.67c-.638 0-1.045-.528-1.221-1.43l2.53-1.309v.286c0 1.565-.418 2.453-1.309 2.453Zm10.27.847.1-1.023h-1.65V8.21l-1.177.1v.8l-1.694.176.022.891 1.672-.044v4.092h-1.849v1.025Zm-7.85 9.5.1-1.023h-1.65V17.71l-1.177.1v.8l-1.694.176.022.891 1.672-.044v4.092H9.409v1.025Zm5.442.143c1.584 0 2.563-1.463 2.563-3.663 0-2.145-.8-3.443-2.4-3.443s-2.574 1.463-2.574 3.663c.002 2.148.805 3.446 2.411 3.446Zm-1.243-3.66c0-1.562.429-2.453 1.32-2.453.649 0 1.045.55 1.221 1.474l-2.53 1.309a3.2 3.2 0 0 1-.011-.33Zm1.331 2.67c-.638 0-1.045-.528-1.221-1.43l2.53-1.309v.286c0 1.565-.418 2.453-1.309 2.453Z" style="fill:#9f4246"/></svg>

<svg xmlns="http://www.w3.org/2000/svg" viewBox="0 0 32 32"><title>file_type_binary</title><path d="M20.929,2H4.529V30h23.3V9Zm5.114,26.35H6.409V3.65H19.815l6.333,6.333V28.35ZM11.477,15.393c1.584,0,2.563-1.463,2.563-3.663,0-2.145-.8-3.443-2.4-3.443S9.068,9.75,9.068,11.95C9.068,14.1,9.871,15.393,11.477,15.393ZM10.234,11.73c0-1.562.429-2.453,1.32-2.453.649,0,1.045.55,1.221,1.474l-2.53,1.309A3.2,3.2,0,0,1,10.234,11.73ZM11.565,14.4c-.638,0-1.045-.528-1.221-1.43l2.53-1.309v.286C12.874,13.512,12.456,14.4,11.565,14.4Zm10.27.847.1-1.023h-1.65V8.21l-1.177.1v.8l-1.694.176.022.891,1.672-.044v4.092H17.259V15.25Zm-7.85,9.5.1-1.023h-1.65V17.71l-1.177.1v.8l-1.694.176.022.891,1.672-.044v4.092H9.409V24.75Zm5.442.143c1.584,0,2.563-1.463,2.563-3.663,0-2.145-.8-3.443-2.4-3.443s-2.574,1.463-2.574,3.663C17.018,23.595,17.821,24.893,19.427,24.893ZM18.184,21.23c0-1.562.429-2.453,1.32-2.453.649,0,1.045.55,1.221,1.474l-2.53,1.309A3.2,3.2,0,0,1,18.184,21.23ZM19.515,23.9c-.638,0-1.045-.528-1.221-1.43l2.53-1.309v.286C20.824,23.012,20.406,23.9,19.515,23.9Z" style="fill:#9f4246"/></svg>
